img/hero-2.svg

<svg width="80" height="53" viewBox="0 0 80 53" fill="none" xmlns="http://www.w3.org/2000/svg">
<path fill-rule="evenodd" clip-rule="evenodd" d="M32.7737 0.173047C31.9519 0.391463 30.8526 1.41241 30.5302 2.25636C30.3214 2.80358 30.2793 3.27621 30.3387 4.41222L30.4149 5.86718L28.7576 6.37797C27.8459 6.65892 26.5387 7.12171 25.8524 7.40641L24.6046 7.92408L24.3478 7.5121C23.5597 6.24757 22.1591 5.64377 20.727 5.95099C20.111 6.0831 19.7722 6.28322 19.2061 6.84935C18.2291 7.82636 18.0327 8.58433 18.2866 10.3987L18.472 11.7244L17.0474 13.0538C11.494 18.2358 7.52294 25.9469 5.70087 35.0861C5.26717 37.2614 4.82221 40.4402 4.81861 41.3871C4.81455 42.4876 4.70729 42.6378 3.78985 42.8283C1.47639 43.3086 -0.199015 45.6161 0.0190886 48.0215C0.179031 49.7857 1.21123 51.2281 2.92338 52.0799C3.64711 52.4401 3.65915 52.4406 11.4751 52.4864C19.2417 52.5317 19.305 52.5296 19.7223 52.2014C20.247 51.7886 20.2993 50.9555 19.8301 50.4863C19.526 50.1822 19.309 50.1736 11.9591 50.1736H4.40101L3.71183 49.8149C2.94152 49.414 2.31926 48.4217 2.31926 47.5939C2.31926 46.7485 2.94183 45.7585 3.72043 45.3659L4.41805 45.0141H29.7982H55.1786L55.5623 44.6303C55.7733 44.4192 55.9461 44.0643 55.9461 43.8415C55.9461 43.6188 55.7733 43.2638 55.5623 43.0528L55.1786 42.6689H31.0911H7.00371L7.07625 42.3172C7.11612 42.1236 7.19289 41.3674 7.24683 40.6364C7.38582 38.7529 8.01136 35.2253 8.63831 32.7889C10.0947 27.1295 12.6461 21.7793 15.7388 17.9004C16.8554 16.4997 18.6817 14.5785 18.7922 14.6883C18.8385 14.7341 19.3424 18.2519 19.9118 22.5056C20.4814 26.7591 21.0163 30.5072 21.1007 30.8346C21.3067 31.6342 22.197 32.5855 23.0411 32.9079C24.4748 33.4554 26.28 32.8995 27.03 31.6794C27.7146 30.5657 27.7143 30.3082 27.0217 25.18C26.6335 22.3044 26.2847 20.25 26.1493 20.0403C25.8671 19.6035 25.2411 19.436 24.7412 19.6638C23.9872 20.0075 23.9793 20.2634 24.5852 24.784C24.8951 27.0965 25.1885 29.2472 25.2371 29.5632C25.3066 30.0133 25.2554 30.208 25.0012 30.4622C24.56 30.9034 23.8111 30.8895 23.5233 30.4348C23.1895 29.9076 20.4168 9.1059 20.6277 8.71191C20.9629 8.08574 21.8677 8.04869 22.2523 8.6453C22.3696 8.82745 22.6876 10.6297 22.959 12.6504C23.2408 14.7497 23.548 16.4744 23.6757 16.6738C23.9548 17.1105 24.5813 17.2781 25.0814 17.0503C25.7914 16.7269 25.835 16.346 25.4723 13.6451C25.2892 12.2811 25.1024 10.9825 25.0573 10.7593C24.9814 10.3837 25.0603 10.3154 26.1158 9.84214C27.4363 9.25021 30.4699 8.22895 30.5803 8.33918C30.6214 8.38045 31.0327 12.7971 31.4943 18.1541C31.9558 23.5112 32.441 28.3515 32.5724 28.9105C33.2832 31.9315 35.6908 34.1786 38.7761 34.7006C42.3131 35.2991 45.9146 33.2111 47.1553 29.8424C47.5876 28.6687 47.5673 28.846 48.5098 17.9978C48.9677 12.7267 49.3761 8.3803 49.4174 8.33918C49.5276 8.22895 52.5613 9.25036 53.8817 9.84214C54.9378 10.3157 55.0161 10.3836 54.9392 10.7593C54.8936 10.9825 54.2879 15.3974 53.5931 20.5702C52.2394 30.6501 52.2474 30.5079 52.9675 31.6794C53.7196 32.9028 55.5225 33.4555 56.9647 32.9046C57.7868 32.5907 58.7014 31.5974 58.9074 30.7949C58.9859 30.4894 59.5161 26.7591 60.0857 22.5056C60.6551 18.2519 61.1599 14.7341 61.2075 14.6883C61.3144 14.5851 63.2109 16.5902 64.3197 17.9786C65.717 19.7281 67.0309 21.8535 68.2266 24.2982C70.8342 29.6295 72.2565 35.0149 72.8822 41.9263L72.9494 42.6689H66.0042H59.0588L58.6751 43.0528C58.464 43.2638 58.2913 43.6188 58.2913 43.8415C58.2913 44.0643 58.464 44.4192 58.6751 44.6303L59.0588 45.0141L67.3132 45.0176C75.0224 45.0207 75.6098 45.0403 76.2078 45.3118C76.9715 45.6586 77.5341 46.4872 77.633 47.4112C77.733 48.3443 77.1704 49.3413 76.2774 49.8135L75.5965 50.1736H49.4332C23.4781 50.1736 23.2672 50.1761 22.957 50.4863C22.4901 50.9531 22.54 51.7886 23.0591 52.197L23.4739 52.5232L49.9116 52.4819L76.3493 52.4406L77.131 52.0535C79.3649 50.9472 80.4759 48.5269 79.8067 46.225C79.3205 44.5521 77.8522 43.1697 76.1965 42.8261C75.2172 42.6227 75.3157 42.8716 75.0218 39.8575C73.9822 29.195 69.4805 19.1927 62.9577 13.0526L61.528 11.7066L61.7121 10.3898C61.9345 8.80087 61.7706 7.95644 61.0766 7.11452C60.4321 6.33263 59.5386 5.90518 58.5493 5.90533C57.2569 5.90549 56.3315 6.4183 55.6497 7.5121L55.3929 7.92408L54.1451 7.40641C53.4588 7.12171 52.1516 6.65892 51.2399 6.37797L49.5826 5.86718L49.6588 4.41222C49.7182 3.27621 49.6761 2.80358 49.4672 2.25636C49.1244 1.35893 48.0429 0.393339 47.1202 0.161008C46.2395 -0.0608476 33.6131 -0.0502155 32.7737 0.173047ZM46.9351 2.65567C47.2584 2.90989 47.347 3.11517 47.347 3.61001C47.347 4.78871 45.3158 27.7343 45.1502 28.4259C44.7951 29.9092 43.7151 31.2166 42.2833 31.8961C40.0716 32.9458 37.697 32.4748 36.059 30.6617C35.366 29.8947 35.0668 29.3426 34.8473 28.4259C34.6817 27.7343 32.6505 4.78871 32.6505 3.61001C32.6505 3.11517 32.7391 2.90989 33.0624 2.65567C33.4642 2.33954 33.635 2.33157 39.9987 2.33157C46.3625 2.33157 46.5332 2.33954 46.9351 2.65567ZM59.2994 8.6292C59.5117 8.95331 59.404 9.94532 58.1146 19.5344C57.2278 26.13 56.6129 30.2149 56.4739 30.4348C55.962 31.2449 54.5824 30.6093 54.7389 29.6354C54.7822 29.3657 55.4315 24.5718 56.1817 18.9825C57.1743 11.5882 57.6113 8.74537 57.7864 8.54634C58.1437 8.13999 59.01 8.18752 59.2994 8.6292Z" fill="white"/>
</svg>

<svg width="80" height="53" fill="none" xmlns="http://www.w3.org/2000/svg"><path fill-rule="evenodd" clip-rule="evenodd" d="M32.774.173c-.822.218-1.921 1.24-2.244 2.083-.209.548-.25 1.02-.191 2.156l.076 1.455-1.657.511a40.11 40.11 0 00-2.906 1.028l-1.247.518-.257-.412c-.788-1.264-2.189-1.868-3.621-1.561-.616.132-.955.332-1.52.898-.978.977-1.174 1.735-.92 3.55l.185 1.325-1.425 1.33c-5.553 5.182-9.524 12.893-11.346 22.032-.434 2.175-.879 5.354-.882 6.301-.004 1.1-.112 1.25-1.03 1.441-2.313.48-3.988 2.788-3.77 5.194.16 1.764 1.192 3.206 2.904 4.058.724.36.736.36 8.552.406 7.767.046 7.83.044 8.247-.285.525-.412.577-1.245.108-1.715-.304-.304-.521-.312-7.87-.312H4.4l-.69-.36c-.77-.4-1.392-1.392-1.392-2.22 0-.846.623-1.836 1.401-2.228l.698-.352h50.76l.384-.384c.211-.21.384-.566.384-.788 0-.223-.173-.578-.384-.79l-.383-.383H7.004l.072-.352c.04-.193.117-.95.17-1.68.14-1.884.765-5.412 1.392-7.848 1.457-5.66 4.008-11.01 7.1-14.889 1.117-1.4 2.944-3.321 3.054-3.212.046.046.55 3.564 1.12 7.818.57 4.253 1.104 8.001 1.189 8.329.206.8 1.096 1.75 1.94 2.073 1.434.547 3.239-.008 3.989-1.229.685-1.113.684-1.37-.008-6.499-.388-2.876-.737-4.93-.873-5.14-.282-.436-.908-.604-1.408-.376-.754.343-.762.6-.156 5.12.31 2.313.604 4.463.652 4.78.07.45.018.644-.236.898-.441.441-1.19.428-1.478-.027-.334-.527-3.106-21.33-2.895-21.723.335-.626 1.24-.663 1.624-.067.118.182.436 1.985.707 4.005.282 2.1.589 3.824.717 4.024.279.436.905.604 1.405.376.71-.323.754-.704.391-3.405-.183-1.364-.37-2.662-.415-2.886-.076-.375.003-.444 1.059-.917 1.32-.592 4.354-1.613 4.464-1.503.041.041.453 4.458.914 9.815.462 5.357.947 10.198 1.078 10.756.711 3.021 3.119 5.269 6.204 5.79 3.537.6 7.139-1.489 8.38-4.858.432-1.173.411-.996 1.354-11.844.458-5.271.866-9.618.907-9.659.11-.11 3.144.911 4.465 1.503 1.056.474 1.134.542 1.057.917-.045.223-.651 4.638-1.346 9.811-1.354 10.08-1.346 9.938-.626 11.11.753 1.223 2.556 1.776 3.998 1.225.822-.314 1.736-1.308 1.942-2.11.079-.306.61-4.036 1.179-8.29.57-4.253 1.074-7.77 1.122-7.817.106-.103 2.003 1.902 3.112 3.29 1.397 1.75 2.71 3.875 3.907 6.32 2.607 5.332 4.03 10.717 4.655 17.628l.067.743H59.06l-.384.384c-.211.21-.384.566-.384.789 0 .222.173.577.384.788l.384.384 8.254.004c7.71.003 8.297.022 8.895.294.764.347 1.326 1.175 1.425 2.1.1.932-.463 1.93-1.356 2.401l-.68.36H49.433c-25.955 0-26.166.003-26.476.313-.467.467-.417 1.303.102 1.711l.415.326 26.438-.041 26.437-.041.782-.388c2.234-1.106 3.345-3.526 2.676-5.828-.487-1.673-1.955-3.055-3.61-3.399-.98-.203-.881.046-1.175-2.968-1.04-10.663-5.541-20.665-12.064-26.805l-1.43-1.346.184-1.317c.222-1.59.059-2.434-.635-3.275-.645-.782-1.538-1.21-2.528-1.21-1.292 0-2.218.513-2.9 1.607l-.256.412-1.248-.518a40.11 40.11 0 00-2.905-1.028l-1.657-.51.076-1.456c.06-1.136.017-1.608-.192-2.156C49.124 1.36 48.043.393 47.12.161c-.88-.222-13.507-.211-14.346.012zm14.161 2.483c.323.254.412.46.412.954 0 1.179-2.031 24.124-2.197 24.816-.355 1.483-1.435 2.79-2.867 3.47-2.211 1.05-4.586.579-6.224-1.234-.693-.767-.992-1.32-1.212-2.236-.165-.692-2.197-23.637-2.197-24.816 0-.495.09-.7.412-.954.402-.316.573-.324 6.937-.324 6.363 0 6.534.008 6.936.324zM59.3 8.629c.213.324.105 1.316-1.184 10.905-.887 6.596-1.502 10.68-1.641 10.9-.512.81-1.892.175-1.735-.799.043-.27.693-5.063 1.443-10.652.992-7.395 1.43-10.238 1.604-10.437.358-.406 1.224-.358 1.513.083z" fill="#fff"/></svg>
